X:1848
T:Trettondedagslåten
C:Pål Olle
R:Marsch
S:Efter Jonny Soling
O:Dalarna
Z:ABC-transkribering av Erik Ronström 2010
M:C|
L:1/8
K:A
Ac|:e2cA a2gf|eTfec A>A (3ABc|d2 E2 EGBc|dfed cBAc|
e2cA a2gf|eTfec A>A (3ABc|d2 E2 EGBG|1 A6 Ac:|2 A8
K:D
|:f2ed A2FA|G2FG E3D|EFGA Bdce|defg b2a2|
f2ed A2FA|G2FG E3D|EFGA Bdce|d8:|
(:musicend:)

(:music:)
